X:497
T:Mala hierba
T:La Infante Seducida
R:Romance
C:Tradicional
S:Msica Tradicional Asturiana, (C) Tello & Tito. Asturies, 2001.
S:http://pagina.de/MusTradAst <telloytito@asturies.org>
N:Corchea=corchea, los compases mrcanse a un tiempu.
A:Asturies
Z:DyC en Teberga
M:2/8
L:1/8
Q:1/8=126
K:A
A/A/|
[M:3/8]
|: A3/2 B/ B/B/|
[M:2/8]
|d/e/ d/c/|
[M:3/8]
|B3/2 c/ c/c/|
[M:2/8]
|c/d/ c/B/|
[M:3/8]
|A3/2 B/ B/c/|
[M:2/8]
|B/c/ B/A/|G/A/ B/c/|B A-|[1 A A/A/ :|[2 A z||
